X: 7
T: We'll All Clap Hands Together.
O: Old Fashioned CHildren's Action Song.
%R: march
B: "The Everyday Song Book", 1927
F: http://www.library.pitt.edu/happybirthday/pdf/The_Everyday_Song_Book.pdf
Z: 2015 John Chambers <jc:trillian.mit.edu>
M: 4/4
L: 1/4
K: G
% - - - - - - - - - - - - - - - - - - - - - - - - - - - - -
D | G G G G | G2 D D | B B B B | B2 G |]
w: 1.~We'll all clap hands to-geth-er, we'll all clap hands to-geth-er,
B | d d d d | d2 B B | A A A (B/A/) | G3 |]
w: We'll all clap hands to-geth-er, as child-ren ought to* do.
% - - - - - - - - - - - - - - - - - - - - - - - - - - - - -
%
W: 2. We'll all stand up together, etc. as in verse 1.
W: 3. We'll all join hands together, etc.
W: 4. We'll all fold hands together, etc.
W: 5. We'll all turn round together, etc.
W: 6. We'll all stand still together, etc.
W: 7. We'll all sit down together, etc.
W: 8. We'll all twist hands together, etc.
W: 9. We'll all be quiet together, etc.

